assets/svg/1f1fa-1f1f2.svg

<svg xmlns="http://www.w3.org/2000/svg" viewBox="0 0 64 64" enable-background="new 0 0 64 64"><path fill="#ed4c5c" d="M47.971,6.61C43.346,3.694,37.871,2,32,2v4.61H47.971z"/><path fill="#fff" d="M32,11.22h21.625c-1.688-1.755-3.584-3.305-5.654-4.61H32V11.22z"/><path fill="#ed4c5c" d="M32,15.83h25.262c-1.061-1.655-2.279-3.198-3.637-4.61H32V15.83z"/><path fill="#fff" d="m32 20.439h27.688c-.674-1.614-1.49-3.153-2.426-4.61h-25.26v4.61"/><path fill="#ed4c5c" d="m32 25.05h29.18c-.377-1.588-.875-3.13-1.494-4.61h-27.688v4.61"/><path fill="#fff" d="m32 29.659h29.9c-.121-1.573-.363-3.113-.719-4.61h-29.18v4.61"/><path fill="#ed4c5c" d="m61.9 29.659h-29.9v2.341h-30c0 .764.037 1.52.094 2.27h59.812c.055-.75.094-1.506.094-2.27 0-.789-.041-1.567-.1-2.341"/><path fill="#fff" d="m2.801 38.879h58.4c.352-1.496.59-3.036.709-4.609h-59.812c.117 1.573.356 3.113.707 4.609"/><path fill="#ed4c5c" d="m4.284 43.488h55.43c.613-1.479 1.107-3.02 1.48-4.609h-58.4c.373 1.588.867 3.13 1.483 4.609"/><path fill="#fff" d="m6.692 48.1h50.617c.928-1.457 1.738-2.997 2.408-4.61h-55.43c.67 1.613 1.478 3.153 2.408 4.61"/><path fill="#ed4c5c" d="m10.305 52.709h43.39c1.35-1.413 2.561-2.956 3.615-4.61h-50.616c1.055 1.654 2.266 3.197 3.613 4.61"/><path fill="#fff" d="m15.917 57.32h32.17c2.053-1.308 3.936-2.857 5.609-4.609h-43.39c1.674 1.752 3.557 3.302 5.612 4.609"/><path fill="#ed4c5c" d="M32,62c5.92,0,11.434-1.722,16.084-4.682H15.917C20.564,60.278,26.08,62,32,62z"/><path fill="#428bc1" d="m16.03 6.61c-2.068 1.305-3.967 2.854-5.654 4.61-1.355 1.412-2.574 2.955-3.637 4.61-.934 1.457-1.75 2.996-2.426 4.61-.617 1.479-1.115 3.02-1.492 4.61-.355 1.497-.598 3.037-.719 4.61-.06.773-.1 1.551-.1 2.34h30v-2.341-4.61-4.61-4.61-4.61-4.609-4.61c-5.873 0-11.346 1.694-15.972 4.61"/><g fill="#fff"><path d="m25 3l.473 1.482h1.527l-1.236.98.476 1.514-1.24-.899-1.236.923.476-1.542-1.24-.976h1.527z"/><path d="m29 9l.473 1.482h1.527l-1.236.98.476 1.514-1.24-.896-1.236.92.476-1.542-1.24-.976h1.527z"/><path d="m21 9l.473 1.482h1.527l-1.236.98.476 1.514-1.24-.896-1.236.92.472-1.542-1.236-.976h1.527z"/><path d="m25 15l.473 1.482h1.527l-1.236.98.476 1.514-1.24-.896-1.236.92.476-1.542-1.24-.976h1.527z"/><path d="m17 15l.473 1.482h1.527l-1.236.98.473 1.514-1.237-.896-1.236.92.473-1.542-1.237-.976h1.528z"/><path d="m9 15l.473 1.482h1.527l-1.236.98.473 1.514-1.237-.896-1.236.92.473-1.542-1.237-.976h1.528z"/><path d="m29 21l.473 1.482h1.527l-1.236.98.476 1.514-1.24-.896-1.236.92.476-1.542-1.24-.976h1.527z"/><path d="m21 21l.473 1.482h1.527l-1.236.98.476 1.514-1.24-.896-1.236.92.472-1.542-1.236-.976h1.527z"/><path d="m13 21l.473 1.482h1.527l-1.236.98.473 1.514-1.237-.896-1.236.92.473-1.542-1.237-.976h1.528z"/><path d="m25 27l.473 1.482h1.527l-1.236.98.476 1.515-1.24-.897-1.236.92.476-1.541-1.24-.977h1.527z"/><path d="m17 27l.473 1.482h1.527l-1.236.98.473 1.515-1.237-.897-1.236.92.473-1.541-1.237-.977h1.528z"/><path d="m9 27l.473 1.482h1.527l-1.236.98.473 1.515-1.237-.897-1.236.92.473-1.541-1.237-.977h1.528z"/><path d="m11.764 13l1.236-.923 1.236.899-.473-1.514 1.237-.98h-1.527l-.473-1.482-.473 1.482h-1.422c-.016.016-.031.03-.047.046l1.178.931-.472 1.541"/><path d="m3.764 25l1.236-.923 1.236.899-.473-1.514 1.237-.98h-1.527l-.473-1.482-.473 1.482h-.976c-.039.115-.08.228-.117.343l.803.633-.473 1.542"/></g></svg>

<svg xmlns="http://www.w3.org/2000/svg" width="64" height="64" viewBox="0 0 64 64"><path fill="#ED4C5C" d="M47.971 6.61A29.848 29.848 0 0 0 32 2v4.61h15.971z"/><path fill="#FFF" d="M32 11.22h21.625a30.17 30.17 0 0 0-5.654-4.61H32v4.61z"/><path fill="#ED4C5C" d="M32 15.83h25.262a30.027 30.027 0 0 0-3.637-4.61H32v4.61z"/><path fill="#FFF" d="M32 20.439h27.688a29.718 29.718 0 0 0-2.426-4.61H32v4.61z"/><path fill="#ED4C5C" d="M32 25.049h29.182a29.756 29.756 0 0 0-1.494-4.61H32v4.61z"/><path fill="#FFF" d="M32 29.659h29.9a29.795 29.795 0 0 0-.719-4.61H32v4.61z"/><path fill="#ED4C5C" d="M61.9 29.659H32V32H2c0 .764.037 1.52.094 2.27h59.812c.055-.75.094-1.506.094-2.27 0-.789-.041-1.567-.1-2.341z"/><path fill="#FFF" d="M2.801 38.879h58.396c.352-1.496.59-3.036.709-4.609H2.094c.117 1.573.356 3.113.707 4.609z"/><path fill="#ED4C5C" d="M4.284 43.488h55.433a29.88 29.88 0 0 0 1.48-4.609H2.801c.373 1.588.867 3.13 1.483 4.609z"/><path fill="#FFF" d="M6.692 48.099h50.617a30.022 30.022 0 0 0 2.408-4.61H4.284a29.847 29.847 0 0 0 2.408 4.61z"/><path fill="#ED4C5C" d="M10.305 52.709h43.388a30.048 30.048 0 0 0 3.615-4.61H6.692a30.284 30.284 0 0 0 3.613 4.61z"/><path fill="#FFF" d="M15.917 57.318h32.167a30.176 30.176 0 0 0 5.609-4.609H10.305a30.124 30.124 0 0 0 5.612 4.609z"/><path fill="#ED4C5C" d="M32 62a29.85 29.85 0 0 0 16.084-4.682H15.917A29.838 29.838 0 0 0 32 62z"/><path fill="#428BC1" d="M16.028 6.61A30.163 30.163 0 0 0 4.311 20.44a29.895 29.895 0 0 0-1.492 4.61 29.916 29.916 0 0 0-.719 4.61c-.06.773-.1 1.551-.1 2.34h30V2a29.85 29.85 0 0 0-15.972 4.61z"/><g><path fill="#FFF" d="M25 3l.473 1.482H27l-1.236.98.472 1.514L25 6.077 23.764 7l.472-1.542L23 4.482h1.527z"/><g fill="#FFF"><path d="M29 9l.473 1.482H31l-1.236.98.472 1.514L29 12.077 27.764 13l.472-1.542L27 10.482h1.527zM21 9l.473 1.482H23l-1.236.98.472 1.514L21 12.077 19.764 13l.472-1.542L19 10.482h1.527z"/></g><g fill="#FFF"><path d="M25 15l.473 1.482H27l-1.236.98.472 1.514L25 18.077 23.764 19l.472-1.542L23 16.482h1.527zM17 15l.473 1.482H19l-1.236.98.473 1.514L17 18.077 15.764 19l.473-1.542L15 16.482h1.528zM9 15l.473 1.482H11l-1.236.98.473 1.514L9 18.077 7.764 19l.473-1.542L7 16.482h1.528z"/></g><g fill="#FFF"><path d="M29 21l.473 1.482H31l-1.236.98.472 1.514L29 24.077 27.764 25l.472-1.542L27 22.482h1.527zM21 21l.473 1.482H23l-1.236.98.472 1.514L21 24.077 19.764 25l.472-1.542L19 22.482h1.527zM13 21l.473 1.482H15l-1.236.98.473 1.514L13 24.077 11.764 25l.473-1.542L11 22.482h1.528z"/></g><g fill="#FFF"><path d="M25 27l.473 1.482H27l-1.236.98.472 1.515L25 30.076 23.764 31l.472-1.541L23 28.482h1.527zM17 27l.473 1.482H19l-1.236.98.473 1.515L17 30.076 15.764 31l.473-1.541L15 28.482h1.528zM9 27l.473 1.482H11l-1.236.98.473 1.515L9 30.076 7.764 31l.473-1.541L7 28.482h1.528z"/></g><g fill="#FFF"><path d="M11.764 13L13 12.077l1.236.899-.473-1.514 1.237-.98h-1.527L13 9l-.473 1.482h-1.422l-.047.046 1.178.931L11.764 13zM3.764 25L5 24.077l1.236.899-.473-1.514L7 22.482H5.473L5 21l-.473 1.482h-.976c-.039.115-.08.228-.117.343l.803.633L3.764 25z"/></g></g></svg>
